source/svgs/bowtie/uE9DE-file-bug.svg

<svg xmlns="http://www.w3.org/2000/svg" viewBox="0 0 448 448" enable-background="new 0 0 448 448"><path d="M262.624 0h-230.624v448h352v-326.625l-121.376-121.375zm-6.624 38.625l89.376 89.375h-89.376v-89.375zm96 377.375h-288v-384h160v128h128v256zm-159.923-57.765c-5.622 0-10.435-1.811-14.374-5.408-3.936-3.622-5.875-8-5.875-13.155 0-5.344 1.939-9.875 5.875-13.626 3.939-3.75 8.752-5.622 14.374-5.622 5.408 0 10.125 1.872 14.125 5.622 3.971 3.75 5.971 8.282 5.971 13.626 0 5.155-2 9.533-5.971 13.155-4 3.597-8.717 5.408-14.125 5.408zm15.593-204.47l-2.656 142.314h-26.749l-3.626-142.314h33.031z"/></svg>

<svg xmlns="http://www.w3.org/2000/svg" viewBox="0 0 448 448"><path d="M262.624 0H32v448h352V121.375L262.624 0zM256 38.625L345.376 128H256V38.625zM352 416H64V32h160v128h128v256zm-159.923-57.765c-5.622 0-10.435-1.811-14.374-5.408-3.936-3.622-5.875-8-5.875-13.155 0-5.344 1.939-9.875 5.875-13.626 3.939-3.75 8.752-5.622 14.374-5.622 5.408 0 10.125 1.872 14.125 5.622 3.971 3.75 5.971 8.282 5.971 13.626 0 5.155-2 9.533-5.971 13.155-4 3.597-8.717 5.408-14.125 5.408zm15.593-204.47l-2.656 142.314h-26.749l-3.626-142.314h33.031z"/></svg>
